raw-svg/shop.svg

<svg fill="none" height="24" viewBox="0 0 24 24" width="24" xmlns="http://www.w3.org/2000/svg"><path clip-rule="evenodd" d="m7.48069 5.75c-.07594 0-.14777.03452-.19521.09383l-2.4 3c-.13096.16369-.01441.40617.19521.40617h13.83871c.2097 0 .3262-.24248.1953-.40617l-2.4-3c-.0475-.05931-.1193-.09383-.1953-.09383zm-1.36652-.84322c.3321-.41512.8349-.65678 1.36652-.65678h9.03871c.5317 0 1.0345.24166 1.3666.65678l2.4 3c.9166 1.14584.1008 2.84322-1.3666 2.84322h-.1693v8.25c0 .4142-.3358.75-.75.75s-.75-.3358-.75-.75v-8.25h-1.5v6.25c0 1.5188-1.2312 2.75-2.75 2.75h-5.00003c-1.51878 0-2.75-1.2312-2.75-2.75v-6.25h-.16938c-1.46738 0-2.28319-1.69738-1.36652-2.84322zm.6359 5.84322v6.25c0 .6904.55964 1.25 1.25 1.25h5.00003c.6903 0 1.25-.5596 1.25-1.25v-6.25h-1.25v4.5c0 .9665-.7835 1.75-1.75 1.75h-1.50003c-.9665 0-1.75-.7835-1.75-1.75v-4.5zm2.75 0v4.5c0 .1381.11193.25.25.25h1.50003c.138 0 .25-.1119.25-.25v-4.5z" fill="#000" fill-rule="evenodd"/></svg>

<svg width="24" height="24" viewBox="0 0 24 24" fill="none" xmlns="http://www.w3.org/2000/svg">
<path fill-rule="evenodd" clip-rule="evenodd" d="M7.48069 5.75C7.40475 5.75 7.33292 5.78452 7.28548 5.84383L4.88548 8.84383C4.75452 9.00752 4.87107 9.25 5.08069 9.25H18.9194C19.1291 9.25 19.2456 9.00752 19.1147 8.84383L16.7147 5.84383C16.6672 5.78452 16.5954 5.75 16.5194 5.75H7.48069ZM6.11417 4.90678C6.44627 4.49166 6.94907 4.25 7.48069 4.25H16.5194C17.0511 4.25 17.5539 4.49166 17.886 4.90678L20.286 7.90678C21.2026 9.05262 20.3868 10.75 18.9194 10.75H18.7501V19C18.7501 19.4142 18.4143 19.75 18.0001 19.75C17.5859 19.75 17.2501 19.4142 17.2501 19V10.75H15.7501V17C15.7501 18.5188 14.5189 19.75 13.0001 19.75H8.00007C6.48129 19.75 5.25007 18.5188 5.25007 17V10.75H5.08069C3.61331 10.75 2.7975 9.05262 3.71417 7.90678L6.11417 4.90678ZM6.75007 10.75V17C6.75007 17.6904 7.30971 18.25 8.00007 18.25H13.0001C13.6904 18.25 14.2501 17.6904 14.2501 17V10.75H13.0001V15.25C13.0001 16.2165 12.2166 17 11.2501 17H9.75007C8.78357 17 8.00007 16.2165 8.00007 15.25V10.75H6.75007ZM9.50007 10.75V15.25C9.50007 15.3881 9.612 15.5 9.75007 15.5H11.2501C11.3881 15.5 11.5001 15.3881 11.5001 15.25V10.75H9.50007Z" fill="black"/>
</svg>
